client/filepreviewer/pdfjs/web/images/toolbarButton-editorFreeText.svg

<svg xmlns="http://www.w3.org/2000/svg" width="16" height="16" fill="none"><path fill="#000" d="M8.625 2.942c0-.217.11-.415.293-.53l1.108-.692a.628.628 0 0 1 .332-.095H12V.375h-1.642a1.88 1.88 0 0 0-.994.285l-1.108.693c-.095.059-.175.135-.256.209-.082-.074-.161-.15-.256-.209L6.635.66a1.878 1.878 0 0 0-.993-.285H4v1.25h1.642a.63.63 0 0 1 .332.095l1.108.692a.621.621 0 0 1 .294.53v10.116c0 .217-.11.415-.294.53l-1.109.692a.628.628 0 0 1-.332.095H4v1.25h1.642c.352 0 .695-.099.994-.285l1.108-.692c.096-.06.175-.136.256-.209.081.073.161.149.256.209l1.109.693c.299.186.642.285.994.285H12v-1.25h-1.642a.63.63 0 0 1-.332-.095l-1.108-.692a.62.62 0 0 1-.293-.53V2.942Z"/></svg>

<svg width="16" height="16" viewBox="0 0 16 16" fill="none" xmlns="http://www.w3.org/2000/svg">
<path d="M8.625 2.942C8.625 2.725 8.735 2.527 8.918 2.412L10.026 1.72C10.126 1.658 10.24 1.625 10.358 1.625H12V0.375H10.358C10.006 0.375 9.663 0.474 9.364 0.66L8.256 1.353C8.161 1.412 8.081 1.488 8 1.562C7.918 1.488 7.839 1.412 7.744 1.353L6.635 0.66C6.336 0.474 5.993 0.375 5.642 0.375H4V1.625H5.642C5.759 1.625 5.874 1.658 5.974 1.72L7.082 2.412C7.266 2.527 7.376 2.725 7.376 2.942V8V13.058C7.376 13.275 7.266 13.473 7.082 13.588L5.973 14.28C5.873 14.342 5.759 14.375 5.641 14.375H4V15.625H5.642C5.994 15.625 6.337 15.526 6.636 15.34L7.744 14.648C7.84 14.588 7.919 14.512 8 14.439C8.081 14.512 8.161 14.588 8.256 14.648L9.365 15.341C9.664 15.527 10.007 15.626 10.359 15.626H12V14.376H10.358C10.241 14.376 10.126 14.343 10.026 14.281L8.918 13.589C8.734 13.474 8.625 13.276 8.625 13.059V8V2.942Z" fill="black"/>
</svg>
